symbols/craft/brewery.svg

<?xml version="1.0" encoding="UTF-8" standalone="no"?>
<svg
   xmlns:dc="http://purl.org/dc/elements/1.1/"
   xmlns:cc="http://creativecommons.org/ns#"
   xmlns:rdf="http://www.w3.org/1999/02/22-rdf-syntax-ns#"
   xmlns:svg="http://www.w3.org/2000/svg"
   xmlns="http://www.w3.org/2000/svg"
   viewBox="0 0 14 14"
   height="14"
   width="14"
   id="craft_brewery"
   version="1.1">
  <metadata
     id="metadata115">
    <rdf:RDF>
      <cc:Work
         rdf:about="">
        <dc:format>image/svg+xml</dc:format>
        <dc:type
           rdf:resource="http://purl.org/dc/dcmitype/StillImage" />
        <dc:title></dc:title>
      </cc:Work>
    </rdf:RDF>
  </metadata>
  <defs
     id="defs113" />
  <path
     id="rect4506"
     d="M 3.8046875 0 L 3.8046875 8.7617188 C 3.7285227 8.9177589 3.6311407 9.0540968 3.5175781 9.171875 C 3.4547352 9.2370506 3.3845279 9.2938724 3.3125 9.3496094 C 2.7797576 9.7366959 2.0181416 9.9253346 1.359375 10.191406 C 1.356115 10.192706 1.3528594 10.195966 1.3496094 10.197266 C 0.68757606 10.452233 0.13097313 10.788486 0.017578125 11.523438 L 9.1621094 11.523438 C 9.1616704 11.520735 9.1606562 11.518425 9.1601562 11.515625 L 9.171875 11.515625 C 9.003902 10.426724 7.8653083 10.209518 6.8496094 9.8359375 C 6.7296813 9.7910775 6.60877 9.7470309 6.4941406 9.6972656 C 6.3139369 9.6180409 6.1477976 9.5255211 5.9921875 9.4199219 C 5.9699953 9.4048621 5.9414506 9.3946573 5.9199219 9.3789062 C 5.6952414 9.2145238 5.5143786 9.0057916 5.3867188 8.7421875 L 5.3867188 0 L 3.8046875 0 z M 10.507812 0 C 10.346604 0 10.216797 0.13176108 10.216797 0.29296875 L 10.216797 0.88085938 C 8.5213416 1.021624 7.1643296 2.3727038 7.0175781 4.0664062 C 7.6847499 4.0093119 8.3131268 3.7652412 8.8496094 3.3515625 L 9.1054688 3.1523438 L 9.2753906 3.4296875 C 9.5820357 3.9280586 10.005937 4.3402768 10.507812 4.6308594 C 11.009688 4.3402768 11.433735 3.9280586 11.740234 3.4296875 L 11.910156 3.1523438 L 12.167969 3.3515625 C 12.704744 3.7652412 13.332828 4.009458 14 4.0664062 C 13.853394 2.3728497 12.496236 1.0217701 10.800781 0.88085938 L 10.800781 0.29296875 C 10.800781 0.13176108 10.66902 0 10.507812 0 z M 8.9511719 3.9941406 C 8.4923725 4.296113 7.9859024 4.4966458 7.4511719 4.59375 C 7.431167 5.2022214 7.5701252 5.8096043 7.8652344 6.359375 C 8.6430906 6.0486414 9.2718304 5.4788293 9.6582031 4.7460938 C 9.3933203 4.5266236 9.1544337 4.2745018 8.9511719 3.9941406 z M 12.064453 3.9941406 C 11.861191 4.2747938 11.624404 4.5266236 11.359375 4.7460938 C 11.745894 5.4788293 12.374488 6.0487874 13.152344 6.359375 C 13.447454 5.8097503 13.586411 5.2020753 13.566406 4.59375 C 13.031384 4.4966458 12.523252 4.296259 12.064453 3.9941406 z M 10.134766 5.0878906 C 9.9610006 5.4028589 9.7500984 5.6920202 9.5039062 5.9472656 C 9.6906676 6.5415729 10.031929 7.0786918 10.507812 7.5039062 C 10.983696 7.0788379 11.327057 6.5417189 11.513672 5.9472656 C 11.267188 5.6918742 11.056725 5.4030049 10.882812 5.0878906 C 10.804543 5.1356396 10.724204 5.1821174 10.642578 5.2246094 L 10.507812 5.2949219 L 10.373047 5.2246094 C 10.291421 5.1821172 10.213034 5.1357856 10.134766 5.0878906 z M 9.0292969 6.3671875 C 8.76383 6.5678209 8.4732262 6.7346 8.1601562 6.8671875 C 8.2204631 7.4058605 8.4040916 7.9291609 8.7089844 8.3945312 C 9.1159461 8.1892251 9.471191 7.9098308 9.7636719 7.5761719 C 9.4488496 7.215791 9.1994119 6.8084642 9.0292969 6.3671875 z M 11.988281 6.3671875 C 11.818167 6.8086103 11.56902 7.2157911 11.253906 7.5761719 C 11.546387 7.9098309 11.901778 8.1893711 12.308594 8.3945312 C 12.613486 7.929015 12.797408 7.4057145 12.857422 6.8671875 C 12.544498 6.7346001 12.253748 6.5675289 11.988281 6.3671875 z M 10.177734 7.9882812 C 10.000464 8.1870164 9.8042032 8.3679433 9.5898438 8.5292969 C 9.7879948 9.0263541 10.098076 9.4758671 10.507812 9.8417969 C 10.917839 9.4757213 11.229875 9.0246927 11.427734 8.5273438 C 11.213812 8.3662823 11.016968 8.1867244 10.839844 7.9882812 C 10.790051 8.0313571 10.741733 8.0743484 10.689453 8.1152344 L 10.507812 8.2558594 L 10.328125 8.1152344 C 10.275995 8.0744937 10.227524 8.0312113 10.177734 7.9882812 z M 0 12.023438 L 0 14 L 9.1445312 14 L 9.1445312 12.023438 L 0 12.023438 z "
     style="opacity:1;fill:#000000;fill-opacity:1;fill-rule:evenodd;stroke:none;stroke-width:0.9391678;stroke-linecap:square;stroke-linejoin:round;stroke-miterlimit:4;stroke-dasharray:none;stroke-opacity:1;paint-order:stroke fill markers" />
</svg>

<?xml version="1.0" encoding="UTF-8"?>
<svg id="craft_brewery" width="14" height="14" version="1.1" viewBox="0 0 14 14" xmlns="http://www.w3.org/2000/svg">
 <path d="m3.8047 0v8.7617c-0.076165 0.15604-0.17355 0.29238-0.28711 0.41016-0.062843 0.065176-0.13305 0.122-0.20508 0.17773-0.53274 0.38709-1.2944 0.57573-1.9531 0.8418-0.00326 0.0013-0.0065156 0.00456-0.0097656 0.00586-0.66203 0.25497-1.2186 0.59122-1.332 1.3262h9.1445c-4.39e-4 -0.002703-0.0014532-0.005013-0.0019532-0.007813h0.011719c-0.16797-1.0889-1.3066-1.3061-2.3223-1.6797-0.11993-0.04486-0.24084-0.088907-0.35547-0.13867-0.1802-0.079225-0.34634-0.17174-0.50195-0.27734-0.022192-0.01506-0.050737-0.025265-0.072266-0.041016-0.22468-0.16438-0.40554-0.37311-0.5332-0.63672v-8.7422h-1.582zm6.7031 0c-0.16121 0-0.29102 0.13176-0.29102 0.29297v0.58789c-1.6955 0.14076-3.0525 1.4918-3.1992 3.1855 0.66717-0.057094 1.2955-0.30116 1.832-0.71484l0.25586-0.19922 0.16992 0.27734c0.30665 0.49837 0.73055 0.91059 1.2324 1.2012 0.50188-0.29058 0.92592-0.7028 1.2324-1.2012l0.16992-0.27734 0.25781 0.19922c0.53678 0.41368 1.1649 0.6579 1.832 0.71484-0.14661-1.6936-1.5038-3.0446-3.1992-3.1855v-0.58789c0-0.16121-0.13176-0.29297-0.29297-0.29297zm-1.5566 3.9941c-0.4588 0.30197-0.96527 0.50251-1.5 0.59961-0.020005 0.60847 0.11895 1.2159 0.41406 1.7656 0.77786-0.31073 1.4066-0.88055 1.793-1.6133-0.26488-0.21947-0.50377-0.47159-0.70703-0.75195zm3.1133 0c-0.20326 0.28065-0.44005 0.53248-0.70508 0.75195 0.38652 0.73274 1.0151 1.3027 1.793 1.6133 0.29511-0.54962 0.43407-1.1573 0.41406-1.7656-0.53502-0.097104-1.0432-0.29749-1.502-0.59961zm-1.9297 1.0938c-0.17377 0.31497-0.38467 0.60413-0.63086 0.85938 0.18676 0.59431 0.52802 1.1314 1.0039 1.5566 0.47588-0.42507 0.81924-0.96219 1.0059-1.5566-0.24648-0.25539-0.45695-0.54426-0.63086-0.85938-0.078269 0.047749-0.15861 0.094227-0.24023 0.13672l-0.13477 0.070312-0.13476-0.070312c-0.081626-0.042492-0.16001-0.088824-0.23828-0.13672zm-1.1055 1.2793c-0.26547 0.20063-0.55607 0.36741-0.86914 0.5 0.060307 0.53867 0.24394 1.062 0.54883 1.5273 0.40696-0.20531 0.76221-0.4847 1.0547-0.81836-0.31482-0.36038-0.56426-0.76771-0.73438-1.209zm2.959 0c-0.17011 0.44142-0.41926 0.8486-0.73438 1.209 0.29248 0.33366 0.64787 0.6132 1.0547 0.81836 0.30489-0.46552 0.48881-0.98882 0.54883-1.5273-0.31292-0.13259-0.60367-0.29966-0.86914-0.5zm-1.8105 1.6211c-0.17727 0.19874-0.37353 0.37966-0.58789 0.54102 0.19815 0.49706 0.50823 0.94657 0.91797 1.3125 0.41003-0.36608 0.72206-0.8171 0.91992-1.3145-0.21392-0.16106-0.41077-0.34062-0.58789-0.53906-0.049793 0.043076-0.098111 0.086067-0.15039 0.12695l-0.18164 0.14062-0.17969-0.14062c-0.05213-0.040741-0.1006-0.084023-0.15039-0.12695zm-10.178 4.0352v1.9766h9.1445v-1.9766h-9.1445z" fill-rule="evenodd"/>
</svg>
